X:9
%%titlespace -20
%%musicspace -10
T:Old Morpeth Rant
M:4/4
L:1/8
K:G
BA | "G"G2 DB, G,B,DB, | "C"G,CEC "G"G,B,DB, | G2 AB "Am"cBAG | "D"F2 A2 AcBA | 
"G"G2 DB, G,B,DB, | "C"G,CEC "G"G,B,DB, | "G"G2 AB "D"cBAG | "G"A2 G2 G2 :|]
[|: Bd | "G"gfed B2 GB | "Am"cBAG "D"F2 D2 | "C"ECEG cBAG | "D"F2 D2 D3 D | 
"C"ECEG cBAG | "D"FDFA dcBA | "G"Ggfg "D"ecAF | "G"A2 G2 G2 :|]

%%newpage
%%scale 0.8

